symbols/web/skip_previous/materialsymbolsrounded/skip_previous_grad200fill1_40px.svg

<svg xmlns="http://www.w3.org/2000/svg" height="40" width="40"><path d="M9.875 31.042q-.75 0-1.25-.5t-.5-1.25V10.667q0-.709.5-1.209.5-.5 1.25-.5.708 0 1.229.5.521.5.521 1.209v18.625q0 .75-.521 1.25t-1.229.5Zm19.333-1.834-11.416-7.791Q17 20.917 17 20t.792-1.417l11.416-7.791q.875-.584 1.771-.125.896.458.896 1.5v15.666q0 1.042-.896 1.5-.896.459-1.771-.125Z"/></svg>

<svg xmlns="http://www.w3.org/2000/svg" height="40" width="40"><path d="M9.875 31.042Q9.125 31.042 8.625 30.542Q8.125 30.042 8.125 29.292V10.667Q8.125 9.958 8.625 9.458Q9.125 8.958 9.875 8.958Q10.583 8.958 11.104 9.458Q11.625 9.958 11.625 10.667V29.292Q11.625 30.042 11.104 30.542Q10.583 31.042 9.875 31.042ZM29.208 29.208 17.792 21.417Q17 20.917 17 20Q17 19.083 17.792 18.583L29.208 10.792Q30.083 10.208 30.979 10.667Q31.875 11.125 31.875 12.167V27.833Q31.875 28.875 30.979 29.333Q30.083 29.792 29.208 29.208Z"/></svg>
